images/fire.svg

<?xml version="1.0"?><svg width="1600" height="1200" xmlns="http://www.w3.org/2000/svg">
 <title>Conclave Tags, Flame , Spirit</title>
 <metadata id="metadata7">image/svg+xml</metadata>
 <g>
  <title>Layer 1</title>
  <path transform="rotate(12.3389 855.589 586.458)" fill="#e73900" fill-rule="evenodd" stroke-width="1.0000002pt" id="path2041" d="m816.695984,1145.77002c2.231018,-65.719971 -135.08197,-94.23999 -190.315002,-145.559998c-91.47699,-39.210022 -120.453979,-100.236023 -122.472992,-160.332031c-7.434998,-96.110962 140.485992,-669.187988 355.985992,-823.09729c-82.584961,236.340302 122.439026,551.159302 249.106018,655.308289c85.709961,80.921997 117.939941,174.093018 87.060059,265.770996c-15.170044,73.140015 -119.780029,117.089966 -176.370056,182.690063c-56.612,39.51001 -133.651978,43.26001 -202.994019,25.219971z"/>
  <rect transform="rotate(19.8923 155.52 131.441)" id="svg_8" height="217.806141" width="9.250377" y="22.537468" x="150.894832" stroke-linecap="null" stroke-linejoin="null" stroke-dasharray="null" stroke-width="1.0000002pt" fill="#ffffff"/>
  <path transform="rotate(-8.3519 557.493 735.589)" fill="#e73900" fill-rule="evenodd" stroke-width="1.0000004pt" id="path2043" d="m347.463562,1076.671631c-312.586731,-334.093933 64.848083,-363.931885 -31.426453,-821.322678c236.110168,215.779556 302.028259,480.457993 401.151978,558.742233c68.410583,61.48053 102.149597,135.692505 92.951904,211.939087c-0.927307,60.343384 108.613953,133.462769 78.660706,189.79895c-159.272156,-88.808594 -433.223541,-30.926025 -541.338135,-139.157593l0,0z">Camp Manatoc</path>
  <path transform="rotate(4.53346 1096.02 666.727)" fill="#e73900" fill-rule="evenodd" stroke-width="1.0000002pt" id="path2063" d="m886.913574,1156.514771c26.95105,-54.109985 -26.383972,-139.878174 -43.179443,-190.063293c-45.565735,-45.18927 -41.162842,-99.752258 -19.214905,-149.794983c32.307678,-80.618591 37.641541,-461.061005 559.017151,-639.717377c-404.352905,265.401886 -135.861328,481.095123 -92.0896,584.955048c25.571899,78.930176 12.499512,161.196533 -45.16626,232.179932c-79.613647,98 -292.179321,152.011597 -359.366943,162.440674z"/>
  <path transform="rotate(7.67647 844.424 594.257)" fill="#e78c00" fill-rule="evenodd" stroke-width="1.0000000pt" id="path1305" d="m817.591858,1076.51062c1.538086,-57.198608 -93.133972,-82.012634 -131.215515,-126.683716c-63.069946,-34.121521 -83.048157,-87.232788 -84.440308,-139.535034c-5.126465,-83.647278 120.69635,-525.892517 221.602966,-716.350937c-68.857849,431.727524 108.253418,479.680283 195.585571,570.321945c59.096863,70.42749 81.31427,151.515198 60.027527,231.303101c-10.458618,63.656616 -55.542053,121.678589 -94.560425,178.77301c-39.030579,34.383911 -119.191223,17.869873 -166.999817,2.171631z"/>
  <path transform="rotate(-10.8689 591.698 752.905)" fill="#e78c00" fill-rule="evenodd" stroke-width="1.0000004pt" id="path2061" d="m464.059204,1044.549316c-297.293106,-297.59375 26.633362,-318.318726 -55.816437,-727.022339c97.917816,192.641418 179.114471,337.357666 214.768707,474.142578c52.763916,48.301147 235.079651,343.156616 224.15271,396.61438c-114.898865,-63.775513 -297.501831,-58.045288 -383.10498,-143.734619z">Camp Manatoc</path>
  <path transform="rotate(-11.5239 564.52 752.521)" fill="#e7e100" fill-rule="evenodd" stroke-width="1.0000004pt" id="path2051" d="m475.197113,921.825806c-149.236725,-180.500977 -37.786346,-286.479004 -39.120728,-511.925995c41.25592,197.310028 171.746002,245.928009 170.070282,364.454987c21.557068,35.455994 134.432983,288.297058 124.994751,320.787048c-50.188599,-51.219971 -199.400635,-104.927002 -255.944305,-173.31604z"/>
  <path transform="rotate(9.20332 1026.37 757.21)" fill="#e78c00" fill-rule="evenodd" stroke-width="1.0000002pt" id="path2045" d="m853.1828,997.289856c-36.700134,-36.780029 -33.153931,-81.189453 -15.476379,-121.919861c26.021484,-65.616455 140.350037,-430.3367 303.675537,-509.664703c-117.949097,149.931366 37.147583,380.559845 72.402588,465.093048c20.596558,64.242432 26.356689,140.229675 -36.378174,188.974121c-94.772339,73.637329 -214.398499,116.520752 -281.436279,126.802246c-42.616089,20.216675 -29.259827,-108.438354 -42.787292,-149.284851z"/>
  <path transform="rotate(10.5184 849.738 716.641)" fill="#e7e100" fill-rule="evenodd" stroke-width="0.99999981pt" id="path1310" d="m823.994629,1046.01123c3.030884,-38.139893 -53.634399,-56.44397 -75.161194,-86.952148c-37.104797,-23.930359 -47.311035,-59.73999 -46.237793,-94.663757c-0.054199,-55.908997 -2.620483,-404.415588 92.65155,-491.05426c-42.169739,136.195313 116.636292,339.220642 166.428101,401.313843c33.356812,48.082703 43.896912,102.597595 28.030457,155.443237c-8.695618,42.284241 -38.241333,80.168213 -64.062012,117.544312c-24.999573,22.222778 -73.145081,9.724854 -101.649109,-1.631226z">goes brighter</path>
  <path transform="rotate(13.464 992.829 775.41)" fill="#e7e100" fill-rule="evenodd" stroke-width="0.99999981pt" id="path2047" d="m828.723022,1063.083252c26.780701,-30.569458 -6.419312,-66.759705 -3.970337,-100.081238c-14.103821,-33.624634 0.700073,-67.157959 23.872803,-95.78302c35.696655,-46.477722 98.427917,-391.880371 229.296143,-428.600464c-120.471741,97.564026 88.729736,358.425232 88.490112,428.457153c-4.303589,52.30719 -85.944458,123.001099 -132.299927,161.039185c-33.916626,31.916504 -101.038879,62.588989 -145.390808,84.087524c-34.012024,-16.11377 -44.675171,-29.129883 -59.997986,-49.119141z"/>
  <path transform="rotate(11.4502 820.824 806.284)" fill="#ffff9e" fill-rule="evenodd" stroke-width="1.0000011pt" id="path2049" d="m775.913452,971.594971c-85.571045,-117.133118 -53.824036,-247.810486 -17.433777,-390.342041c16.577393,96.710571 85.632202,214.070862 124.669067,252.55719c26.941895,30.225281 40.229187,66.709106 36.606812,104.194397c-0.365295,29.666565 -17.694275,65.613403 -29.49054,93.310425c-62.724792,-43.66333 -71.773376,-6.510864 -114.351563,-59.719971z"/>
  <path transform="rotate(7.95645 963.934 813.09)" fill="#ffff9e" fill-rule="evenodd" stroke-width="1.0000011pt" id="path2065" d="m849.517761,922.421631c78.918945,-132.527527 0.793274,-236.861938 181.667419,-340.829712c-54.012512,96.385803 69.519531,248.578369 56.077759,301.351624c-22.604858,88.748962 -178.70575,154.803772 -218.165894,161.643982c9.401245,-72.978271 -53.022766,-59.129028 -19.579285,-122.165894z"/>
  <path transform="rotate(-21.3288 638.532 871.106)" fill="#ffff9e" fill-rule="evenodd" stroke-width="1.0000011pt" id="path2067" d="m517.28949,630.067261c176.423645,356.684021 172.524902,176.607361 242.484619,482.07666c-333.472443,-237.360046 -183.80603,-215.935486 -242.484619,-482.07666z"/>
  <text transform="rotate(-0.225035 119.591 25.2803) matrix(4.79899 0 0 1.20895 -281.125 19.2355)" xml:space="preserve" text-anchor="middle" font-family="Arial" font-size="24" id="svg_1" y="12.970503" x="83.678699" stroke-linecap="null" stroke-linejoin="null" stroke-dasharray="null" stroke-width="0" fill="#000000"/>
  <text xml:space="preserve" text-anchor="middle" font-family="Arial" font-size="24" id="svg_4" y="19.146667" x="-206.146667" stroke-linecap="null" stroke-linejoin="null" stroke-dasharray="null" stroke-width="0" fill="#000000"/>
 </g>
</svg>

<?xml version="1.0" encoding="UTF-8" standalone="no"?>
<svg
   xmlns:dc="http://purl.org/dc/elements/1.1/"
   xmlns:cc="http://creativecommons.org/ns#"
   xmlns:rdf="http://www.w3.org/1999/02/22-rdf-syntax-ns#"
   xmlns:svg="http://www.w3.org/2000/svg"
   xmlns="http://www.w3.org/2000/svg"
   xmlns:sodipodi="http://sodipodi.sourceforge.net/DTD/sodipodi-0.dtd"
   xmlns:inkscape="http://www.inkscape.org/namespaces/inkscape"
   width="400"
   height="400"
   id="svg3140"
   version="1.1"
   inkscape:version="0.48.5 r10040"
   sodipodi:docname="black.svg">
  <metadata
     id="metadata3151">
    <rdf:RDF>
      <cc:Work
         rdf:about="">
        <dc:format>image/svg+xml</dc:format>
        <dc:type
           rdf:resource="http://purl.org/dc/dcmitype/StillImage" />
        <dc:title></dc:title>
      </cc:Work>
    </rdf:RDF>
  </metadata>
  <defs
     id="defs3149" />
  <sodipodi:namedview
     pagecolor="#ffffff"
     bordercolor="#666666"
     borderopacity="1"
     objecttolerance="10"
     gridtolerance="10"
     guidetolerance="10"
     inkscape:pageopacity="0"
     inkscape:pageshadow="2"
     inkscape:window-width="1920"
     inkscape:window-height="1028"
     id="namedview3147"
     showgrid="false"
     inkscape:zoom="1.18"
     inkscape:cx="308.12152"
     inkscape:cy="105.0601"
     inkscape:window-x="-8"
     inkscape:window-y="-8"
     inkscape:window-maximized="1"
     inkscape:current-layer="svg3140" />
  <g
     id="g3142">
    <title
       id="title3144">Layer 1</title>
    <rect
       fill="#000000"
       stroke="#000000"
       stroke-width="6"
       stroke-dasharray="null"
       stroke-linejoin="null"
       stroke-linecap="null"
       x="2.424988"
       y="3.164001"
       width="400"
       height="400"
       id="svg_9" />
  </g>
  <path
     style="fill:#ff7f2a"
     d="m -0.29114298,202.90435 0,-202.54237569 202.54237298,0 202.54237,0 0,202.54237569 0,202.54237 -202.54237,0 -202.54237298,0 0,-202.54237 z"
     id="path3153"
     inkscape:connector-curvature="0" />
  <path
     style="fill:#ff7f2a"
     d="m -0.29114298,202.90435 0,-202.54237569 202.54237298,0 202.54237,0 0,202.54237569 0,202.54237 -202.54237,0 -202.54237298,0 0,-202.54237 z"
     id="path3155"
     inkscape:connector-curvature="0" />
  <g
     id="g3190"
     transform="matrix(0.31022683,0,0,0.35049338,-35.629105,-7.7091111)">
    <title
       id="title3192">Layer 1</title>
    <path
       d="M 816.69598,1145.77 C 818.927,1080.05 681.61401,1051.53 626.38098,1000.21 534.90399,961 505.927,899.974 503.90799,839.87799 496.47299,743.76703 644.39398,170.69 859.89398,16.780701 777.30902,253.121 982.33301,567.94 1109,672.08899 c 85.71,80.922 117.9399,174.09302 87.0601,265.771 C 1180.89,1011 1076.28,1054.95 1019.69,1120.55 c -56.612,39.5101 -133.65198,43.2601 -202.99402,25.22 z"
       id="path2041"
       transform="matrix(0.97690072,0.21369369,-0.21369369,0.97690072,145.08586,-169.28721)"
       inkscape:connector-curvature="0"
       style="fill:#e73900;fill-rule:evenodd;stroke-width:1.00000019pt" />
    <rect
       stroke-linejoin="null"
       stroke-linecap="null"
       x="150.89484"
       y="22.537468"
       width="9.2503767"
       height="217.80614"
       id="svg_8"
       transform="matrix(0.94033386,0.34025318,-0.34025318,0.94033386,54.002496,-45.073598)"
       style="fill:#ffffff;stroke-width:1.00000019pt;stroke-dasharray:none" />
    <path
       d="M 347.46356,1076.6716 C 34.876831,742.5777 412.31164,712.73975 316.03711,255.34895 c 236.11017,215.77956 302.02826,480.458 401.15198,558.74224 68.41058,61.48053 102.14959,135.6925 92.9519,211.93911 -0.92731,60.3434 108.61395,133.4627 78.66071,189.7989 -159.27216,-88.8086 -433.22354,-30.926 -541.33814,-139.1576 l 0,0 z"
       id="path2043"
       transform="matrix(0.98939462,-0.14525248,0.14525248,0.98939462,-100.9337,88.77844)"
       inkscape:connector-curvature="0"
       style="fill:#e73900;fill-rule:evenodd;stroke-width:1.00000038pt">Camp Manatoc</path>
    <path
       d="M 886.91357,1156.5148 C 913.86462,1102.4048 860.5296,1016.6366 843.73413,966.45148 798.1684,921.26221 802.57129,866.69922 824.51923,816.6565 856.8269,736.0379 862.16077,355.59549 1383.5364,176.93912 979.18347,442.341 1247.675,658.03424 1291.4468,761.89417 c 25.5719,78.93017 12.4995,161.19653 -45.1663,232.17993 -79.6136,98 -292.1793,152.0116 -359.36693,162.4407 z"
       id="path2063"
       transform="matrix(0.99687134,0.07904127,-0.07904127,0.99687134,56.128017,-84.544853)"
       inkscape:connector-curvature="0"
       style="fill:#e73900;fill-rule:evenodd;stroke-width:1.00000019pt" />
    <path
       d="M 817.59186,1076.5106 C 819.12994,1019.312 724.45789,994.49799 686.37634,949.8269 623.3064,915.70538 603.32819,862.59412 601.93604,810.29187 596.80957,726.64459 722.63239,284.39935 823.539,93.940933 754.68115,525.66846 931.79242,573.62122 1019.1246,664.26288 c 59.0968,70.42749 81.3142,151.5152 60.0275,231.3031 -10.4586,63.65661 -55.5421,121.67862 -94.56043,178.77302 -39.03057,34.3839 -119.19122,17.8699 -166.99981,2.1716 z"
       id="path1305"
       transform="matrix(0.99103814,0.1335792,-0.1335792,0.99103814,86.947984,-107.47184)"
       inkscape:connector-curvature="0"
       style="fill:#e78c00;fill-rule:evenodd;stroke-width:1pt" />
    <path
       d="M 464.0592,1044.5493 C 166.7661,746.95557 490.69257,726.23059 408.24277,317.52698 506.16058,510.1684 587.35724,654.88464 623.01147,791.66956 675.77539,839.9707 858.09113,1134.8262 847.16418,1188.2839 732.26532,1124.5084 549.66235,1130.2386 464.0592,1044.5493 z"
       id="path2061"
       transform="matrix(0.98206121,-0.18856241,0.18856241,0.98206121,-131.35523,125.07821)"
       inkscape:connector-curvature="0"
       style="fill:#e78c00;fill-rule:evenodd;stroke-width:1.00000038pt">Camp Manatoc</path>
    <path
       d="M 475.19711,921.82581 C 325.96039,741.32483 437.41077,635.3468 436.07639,409.89981 c 41.25592,197.31003 171.746,245.92801 170.07028,364.45499 21.55706,35.45599 134.43298,288.2971 124.99475,320.787 -50.1886,-51.2199 -199.40064,-104.92696 -255.94431,-173.31599 z"
       id="path2051"
       transform="matrix(0.97984146,-0.19977668,0.19977668,0.97984146,-138.95624,127.94766)"
       inkscape:connector-curvature="0"
       style="fill:#e7e100;fill-rule:evenodd;stroke-width:1.00000038pt" />
    <path
       d="M 853.1828,997.28986 C 816.48267,960.50983 820.02887,916.1004 837.70642,875.37 863.72791,809.75354 978.05646,445.03329 1141.382,365.70529 c -117.9491,149.93137 37.1475,380.55985 72.4025,465.09305 20.5966,64.24243 26.3567,140.22968 -36.3781,188.97416 -94.7724,73.6373 -214.39853,116.5207 -281.43631,126.8022 -42.61609,20.2167 -29.25982,-108.4383 -42.78729,-149.28484 z"
       id="path2045"
       transform="matrix(0.987127,0.15993839,-0.15993839,0.987127,134.31941,-154.4084)"
       inkscape:connector-curvature="0"
       style="fill:#e78c00;fill-rule:evenodd;stroke-width:1.00000019pt" />
    <path
       d="m 823.99463,1046.0112 c 3.03088,-38.1399 -53.6344,-56.44394 -75.1612,-86.95212 -37.10479,-23.93036 -47.31103,-59.73999 -46.23779,-94.66375 -0.0542,-55.909 -2.62048,-404.41559 92.65155,-491.05426 -42.16974,136.19531 116.63629,339.22064 166.4281,401.31384 33.35681,48.0827 43.89691,102.59759 28.03046,155.44324 -8.69562,42.28424 -38.24133,80.16825 -64.06201,117.54435 -24.99958,22.2227 -73.14508,9.7248 -101.64911,-1.6313 z"
       id="path1310"
       transform="matrix(0.98319633,0.18255128,-0.18255128,0.98319633,145.10245,-143.07856)"
       inkscape:connector-curvature="0"
       style="fill:#e7e100;fill-rule:evenodd;stroke-width:0.99999981pt">goes brighter</path>
    <path
       d="m 828.72302,1063.0833 c 26.7807,-30.5695 -6.41931,-66.75975 -3.97033,-100.08129 -14.10383,-33.62463 0.70007,-67.15796 23.8728,-95.78302 35.69665,-46.47772 98.42791,-391.88037 229.29611,-428.60046 -120.47171,97.56403 88.7298,358.42523 88.4901,428.45715 -4.3035,52.30719 -85.9444,123.0011 -132.2999,161.03922 -33.9166,31.9165 -101.03886,62.589 -145.39079,84.0875 -34.01203,-16.1138 -44.67517,-29.1299 -59.99799,-49.1191 z"
       id="path2047"
       transform="matrix(0.97251641,0.23283436,-0.23283436,0.97251641,207.8286,-209.85365)"
       inkscape:connector-curvature="0"
       style="fill:#e7e100;fill-rule:evenodd;stroke-width:0.99999981pt" />
    <path
       d="M 775.91345,971.59497 C 690.34241,854.46185 722.08942,723.78449 758.47968,581.25293 c 16.57739,96.71057 85.6322,214.07086 124.66906,252.55719 26.9419,30.22528 40.22919,66.70911 36.60681,104.1944 -0.36529,29.66656 -17.69427,65.61338 -29.49054,93.31038 -62.72479,-43.66329 -71.77337,-6.5108 -114.35156,-59.71993 z"
       id="path2049"
       transform="matrix(0.98009762,0.19851613,-0.19851613,0.98009762,176.39673,-146.89984)"
       inkscape:connector-curvature="0"
       style="fill:#ffff9e;fill-rule:evenodd;stroke-width:1.00000114pt" />
    <path
       d="m 849.51776,922.42163 c 78.91895,-132.52753 0.79327,-236.86194 181.66744,-340.82971 -54.01253,96.3858 69.5195,248.57837 56.0777,301.35162 -22.6048,88.74897 -178.70571,154.80376 -218.16586,161.64396 9.40125,-72.97825 -53.02276,-59.129 -19.57928,-122.16587 z"
       id="path2065"
       transform="matrix(0.99037357,0.13842037,-0.13842037,0.99037357,121.82746,-125.60094)"
       inkscape:connector-curvature="0"
       style="fill:#ffff9e;fill-rule:evenodd;stroke-width:1.00000114pt" />
    <path
       d="M 517.28949,630.06726 C 693.71313,986.75128 689.81439,806.67462 759.77411,1112.1439 426.30167,874.78388 575.96808,896.20844 517.28949,630.06726 z"
       id="path2067"
       transform="matrix(0.93150852,-0.3637195,0.3637195,0.93150852,-273.10424,291.90988)"
       inkscape:connector-curvature="0"
       style="fill:#ffff9e;fill-rule:evenodd;stroke-width:1.00000114pt" />
    <text
       stroke-linejoin="null"
       stroke-linecap="null"
       x="83.678696"
       y="12.970503"
       id="svg_1"
       font-size="24"
       xml:space="preserve"
       transform="matrix(4.798953,-0.01884847,0.00474826,1.2089407,-281.14565,20.809395)"
       style="font-size:24px;text-anchor:middle;fill:#000000;stroke-width:0;stroke-dasharray:none;font-family:Arial" />
    <text
       stroke-linejoin="null"
       stroke-linecap="null"
       x="-206.14667"
       y="19.146667"
       id="svg_4"
       font-size="24"
       xml:space="preserve"
       style="font-size:24px;text-anchor:middle;fill:#000000;stroke-width:0;stroke-dasharray:none;font-family:Arial" />
  </g>
  <rect
     style="fill:#ff7f2a"
     id="rect3230"
     width="50"
     height="83.05085"
     x="-1.3962951e-007"
     y="0.84745759" />
</svg>
